public/svgs/icons/retainer.svg

<svg fill="none" height="89" viewBox="0 0 89 89" width="89" xmlns="http://www.w3.org/2000/svg"><path d="m75.3403 73.7499c-.2014-.0018-.3946-.0805-.54-.22-.1404-.1406-.2193-.3313-.2193-.53 0-.1988.0789-.3894.2193-.53 6.7115-6.6899 10.9359-15.4721 11.9732-24.8914s-1.1748-18.9103-6.2696-26.9004c-5.0949-7.9901-12.7668-13.99964-21.7445-17.03289-8.9777-3.033241-18.7222-2.908111-27.6191.35466-2.3258.8806-4.5709 1.96132-6.71 3.23-.0785.08584-.1759.15223-.2845.19393s-.2255.05757-.3412.04634c-.1158-.01124-.2274-.04925-.326-.11104-.0986-.0618-.1814-.14568-.242-.24501s-.0972-.21138-.107-.32731.0075-.23254.0506-.34063c.043-.10808.1106-.20467.1974-.28213.0868-.07745.1905-.13365.3027-.16415 2.2272-1.32609 4.5702-2.44735 7-3.35 9.2036-3.332304 19.2677-3.430264 28.5344-.27774 9.2667 3.15252 17.1831 9.36747 22.4452 17.62097s7.5559 18.0532 6.5035 27.7848c-1.0524 9.7315-5.3882 18.8142-12.2931 25.752-.1428.1372-.332.2157-.53.22z" fill="#ed6a5e"/><path d="m44.1405 88.3699c-8.5264.0195-16.8665-2.4934-23.9629-7.2199-7.0964-4.7266-12.62938-11.454-15.8975-19.3291-3.26811-7.8752-4.124105-16.5435-2.45945-24.9058 1.66465-8.3623 5.77497-16.0419 11.80985-22.0652.1406-.1404.3312-.2193.53-.2193.1987 0 .3893.0789.53.2193.0707.069.1269.1514.1653.2424s.0582.1888.0582.2876-.0198.1966-.0582.2876c-.0384.0911-.0946.1735-.1653.2424-6.70767 6.6904-10.92816 15.4717-11.96224 24.8889s1.18034 18.9051 6.27633 26.8915c5.09601 7.9865 12.76771 13.9922 21.74391 17.0221 8.9763 3.0298 18.7183 2.9019 27.612-.3625 2.323-.8796 4.5649-1.9603 6.6999-3.23.1724-.1008.3778-.1289.571-.0783.1931.0506.3583.1759.459.3483.1008.1724.129.3778.0784.5709-.0507.1932-.176.3583-.3484.4591-2.2138 1.3184-4.5395 2.4394-6.9499 3.35-4.72 1.7224-9.7057 2.6024-14.73 2.6z" fill="#ed6a5e"/><path d="m83.3103 74.7998h-9.49v-9.48c0-.1989.079-.3897.2197-.5303.1406-.1407.3314-.2197.5303-.2197s.3897.079.5303.2197c.1407.1406.2197.3314.2197.5303v8h8c.1989 0 .3897.079.5303.2197.1407.1406.2197.3314.2197.5303s-.079.3897-.2197.5303c-.1406.1407-.3314.2197-.5303.2197z" fill="#ed6a5e"/><path d="m15 24.4099c-.1989 0-.3897-.079-.5303-.2197-.1407-.1406-.2197-.3314-.2197-.5303v-8h-8c-.19891 0-.38968-.079-.53033-.2197-.14065-.1406-.21967-.3314-.21967-.5303s.07902-.3897.21967-.5304c.14065-.1406.33142-.2196.53033-.2196h9.48v9.48c.004.0988-.0118.1974-.0466.2901-.0347.0926-.0877.1773-.1558.2491-.068.0717-.1498.1292-.2404.1688s-.1883.0607-.2872.062z" fill="#ed6a5e"/><g fill="#bad8db"><path d="m61.2501 54.6398c-1.4783-.0003-2.9304-.3906-4.2095-1.1317s-2.3401-1.8066-3.0756-3.089c-.7355-1.2823-1.1196-2.7361-1.1134-4.2144.0061-1.4783.4023-2.9288 1.1485-4.2049l.38-.74c1.016-1.7495 1.552-3.7362 1.5539-5.7593s-.5304-4.0109-1.5431-5.7623-2.4698-3.2043-4.2241-4.212c-1.7543-1.0076-3.7436-1.5342-5.7667-1.5264h-.4c-1.9861.063-3.9218.64-5.6183 1.6747-1.6965 1.0346-3.0956 2.4915-4.0608 4.2285-.9652 1.7369-1.4634 3.6944-1.446 5.6814.0173 1.9871.5497 3.9356 1.5451 5.6554l.37.73c.0857.1727.1034.3713.0497.5564-.0537.1852-.1749.3435-.3397.4436-.0823.05-.1739.083-.2692.097s-.1925.0087-.2858-.0156c-.0932-.0242-.1806-.0669-.2571-.1256-.0764-.0586-.1403-.132-.1879-.2158 0 0 0-.08 0-.09l-.36-.7c-1.1114-1.9732-1.6881-4.2024-1.673-6.467s.6215-4.4859 1.7592-6.444c1.1377-1.9582 2.7672-3.5851 4.7271-4.7198 1.9598-1.1346 4.1821-1.7376 6.4467-1.7492h.75c2.2122.1293 4.3545.8219 6.2237 2.0121 1.8692 1.1901 3.4031 2.8383 4.4561 4.7881 1.053 1.9497 1.5902 4.1362 1.5604 6.3519-.0297 2.2157-.6253 4.3871-1.7302 6.3079l-.41.77c-.7219 1.2226-1.0491 2.6381-.9369 4.0535s.6583 2.7617 1.5638 3.8554c.9055 1.0936 2.1263 1.8812 3.496 2.2554 1.3696.3743 2.8213.3169 4.1571-.1643.0933-.0329.1921-.047.2908-.0416.0987.0053.1954.03.2845.0728.0891.0427.169.1025.235.1761s.1169.1594.1497.2527c.0329.0932.047.192.0416.2907-.0053.0987-.03.1954-.0727.2845-.0428.0892-.1026.169-.1762.2351-.0736.066-.1594.1168-.2527.1497-.8946.3059-1.8345.4581-2.78.45z"/><path d="m27.5399 54.64c-.9401.0025-1.8737-.1565-2.76-.47-.0994-.0273-.1921-.0748-.2723-.1395-.0803-.0648-.1463-.1453-.194-.2367s-.076-.1917-.0832-.2945c-.0073-.1028.0068-.206.0412-.3032.0345-.0972.0886-.1862.159-.2615s.1556-.1353.2502-.1762.1966-.0619.2997-.0616c.1031.0002.205.0218.2994.0632 1.3341.4688 2.7798.5169 4.1422.1381 1.3623-.3789 2.5756-1.1666 3.4761-2.2568s1.4449-2.4304 1.5596-3.8398c.1148-1.4093-.2056-2.82-.9179-4.0415-.0994-.1724-.1263-.3772-.0748-.5695.0516-.1922.1774-.356.3498-.4555s.3773-.1264.5695-.0748.3561.1774.4555.3498c.7384 1.2788 1.1265 2.7297 1.1254 4.2064-.0011 1.4766-.3914 2.9269-1.1317 4.2046s-1.8043 2.3377-3.0848 3.0732c-1.2805.7354-2.7322 1.1203-4.2089 1.1158z"/><path d="m61.18 60.6799c-3.0783-.0139-6.0993-.8335-8.7625-2.3774s-4.8758-3.7582-6.4175-6.4226c-.0948-.1689-.1196-.3682-.0691-.5551.0504-.187.1722-.3467.3391-.4449.1694-.0922.3679-.1157.5541-.0654s.3459.1704.4459.3354c1.419 2.4356 3.4523 4.4562 5.8967 5.8601 2.4445 1.4038 5.2144 2.1417 8.0333 2.1399.1989 0 .3897.079.5303.2197.1407.1406.2197.3314.2197.5303s-.079.3897-.2197.5303c-.1406.1407-.3314.2197-.5303.2197z"/><path d="m39.2998 63.5399c-.1657.0013-.3271-.0523-.4591-.1525-.132-.1001-.2272-.2412-.2706-.4011s-.0326-.3296.0307-.4828c.0632-.1531.1754-.281.319-.3636 2.3518-1.4046 4.4206-3.236 6.1-5.4.122-.1578.3017-.2607.4996-.286.1978-.0254.3976.029.5554.151s.2607.3017.286.4995c.0253.1979-.029.3977-.151.5555-1.7977 2.3101-4.0084 4.2665-6.52 5.77-.1182.0699-.2526.1078-.39.11z"/><path d="m27.6396 60.6798c-.1989 0-.3896-.0789-.5303-.2197-.1406-.1406-.2197-.3314-.2197-.5303s.0791-.3897.2197-.5303c.1407-.1407.3314-.2197.5303-.2197 2.8189.0018 5.5889-.7361 8.0333-2.1399s4.4777-3.4245 5.8967-5.8601c.1-.165.2597-.2851.446-.3353.1862-.0503.3846-.0269.554.0653.1669.0982.2887.2579.3392.4449s.0256.3862-.0692.5551c-1.5472 2.6618-3.7645 4.8719-6.4313 6.4106-2.6667 1.5386-5.6899 2.3521-8.7687 2.3594z"/><path d="m49.2701 40.6398c.7953 0 1.44-.6447 1.44-1.4399 0-.7953-.6447-1.4401-1.44-1.4401s-1.44.6448-1.44 1.4401c0 .7952.6447 1.4399 1.44 1.4399z"/><path d="m39.7701 40.6398c.7953 0 1.44-.6447 1.44-1.4399 0-.7953-.6447-1.4401-1.44-1.4401s-1.44.6448-1.44 1.4401c0 .7952.6447 1.4399 1.44 1.4399z"/></g></svg>

<svg width="89" height="89" viewBox="0 0 89 89" fill="none" xmlns="http://www.w3.org/2000/svg">
<path d="M75.3403 73.7499C75.1389 73.7481 74.9457 73.6694 74.8003 73.5299C74.6599 73.3893 74.581 73.1986 74.581 72.9999C74.581 72.8011 74.6599 72.6105 74.8003 72.4699C81.5118 65.78 85.7362 56.9978 86.7735 47.5785C87.8108 38.1592 85.5987 28.6682 80.5039 20.6781C75.409 12.688 67.7371 6.67846 58.7594 3.64521C49.7817 0.611969 40.0372 0.737099 31.1403 3.99987C28.8145 4.88047 26.5694 5.96119 24.4303 7.22987C24.3518 7.31571 24.2544 7.3821 24.1458 7.4238C24.0372 7.4655 23.9203 7.48137 23.8046 7.47014C23.6888 7.4589 23.5772 7.42089 23.4786 7.3591C23.38 7.2973 23.2972 7.21342 23.2366 7.11409C23.176 7.01476 23.1394 6.90271 23.1296 6.78678C23.1198 6.67085 23.1371 6.55424 23.1802 6.44615C23.2232 6.33807 23.2908 6.24148 23.3776 6.16402C23.4644 6.08657 23.5681 6.03037 23.6803 5.99987C25.9075 4.67378 28.2505 3.55252 30.6803 2.64987C39.8839 -0.682434 49.948 -0.780394 59.2147 2.37213C68.4814 5.52465 76.3978 11.7396 81.6599 19.9931C86.922 28.2466 89.2158 38.0463 88.1634 47.7779C87.111 57.5094 82.7752 66.5921 75.8703 73.5299C75.7275 73.6671 75.5383 73.7456 75.3403 73.7499Z" fill="#ED6A5E"/>
<path d="M44.1405 88.3699C35.6141 88.3894 27.274 85.8765 20.1776 81.15C13.0812 76.4234 7.54822 69.696 4.2801 61.8209C1.01199 53.9457 0.155995 45.2774 1.82065 36.9151C3.4853 28.5528 7.59562 20.8732 13.6305 14.8499C13.7711 14.7095 13.9617 14.6306 14.1605 14.6306C14.3592 14.6306 14.5498 14.7095 14.6905 14.8499C14.7612 14.9189 14.8174 15.0013 14.8558 15.0923C14.8942 15.1833 14.914 15.2811 14.914 15.3799C14.914 15.4787 14.8942 15.5765 14.8558 15.6675C14.8174 15.7586 14.7612 15.841 14.6905 15.9099C7.98283 22.6003 3.76234 31.3816 2.72826 40.7988C1.69418 50.216 3.9086 59.7039 9.00459 67.6903C14.1006 75.6768 21.7723 81.6825 30.7485 84.7124C39.7248 87.7422 49.4668 87.6143 58.3605 84.3499C60.6835 83.4703 62.9254 82.3896 65.0604 81.1199C65.2328 81.0191 65.4382 80.991 65.6314 81.0416C65.8245 81.0922 65.9897 81.2175 66.0904 81.3899C66.1912 81.5623 66.2194 81.7677 66.1688 81.9608C66.1181 82.154 65.9928 82.3191 65.8204 82.4199C63.6066 83.7383 61.2809 84.8593 58.8705 85.7699C54.1505 87.4923 49.1648 88.3723 44.1405 88.3699Z" fill="#ED6A5E"/>
<path d="M83.3103 74.7998H73.8203V65.3198C73.8203 65.1209 73.8993 64.9301 74.04 64.7895C74.1806 64.6488 74.3714 64.5698 74.5703 64.5698C74.7692 64.5698 74.96 64.6488 75.1006 64.7895C75.2413 64.9301 75.3203 65.1209 75.3203 65.3198V73.3198H83.3203C83.5192 73.3198 83.71 73.3988 83.8506 73.5395C83.9913 73.6801 84.0703 73.8709 84.0703 74.0698C84.0703 74.2687 83.9913 74.4595 83.8506 74.6001C83.71 74.7408 83.5192 74.8198 83.3203 74.8198L83.3103 74.7998Z" fill="#ED6A5E"/>
<path d="M15 24.4099C14.8011 24.4099 14.6103 24.3309 14.4697 24.1902C14.329 24.0496 14.25 23.8588 14.25 23.6599V15.6599H6.25C6.05109 15.6599 5.86032 15.5809 5.71967 15.4402C5.57902 15.2996 5.5 15.1088 5.5 14.9099C5.5 14.711 5.57902 14.5202 5.71967 14.3795C5.86032 14.2389 6.05109 14.1599 6.25 14.1599H15.73V23.6399C15.734 23.7387 15.7182 23.8373 15.6834 23.93C15.6487 24.0226 15.5957 24.1073 15.5276 24.1791C15.4596 24.2508 15.3778 24.3083 15.2872 24.3479C15.1966 24.3875 15.0989 24.4086 15 24.4099Z" fill="#ED6A5E"/>
<path d="M61.2501 54.6398C59.7718 54.6395 58.3197 54.2492 57.0406 53.5081C55.7615 52.767 54.7005 51.7015 53.965 50.4191C53.2295 49.1368 52.8454 47.683 52.8516 46.2047C52.8577 44.7264 53.2539 43.2759 54.0001 41.9998L54.3801 41.2598C55.3961 39.5103 55.9321 37.5236 55.934 35.5005C55.9359 33.4774 55.4036 31.4896 54.3909 29.7382C53.3782 27.9868 51.9211 26.5339 50.1668 25.5262C48.4125 24.5186 46.4232 23.992 44.4001 23.9998H44.0001C42.014 24.0628 40.0783 24.6398 38.3818 25.6745C36.6853 26.7091 35.2862 28.166 34.321 29.903C33.3558 31.6399 32.8576 33.5974 32.875 35.5844C32.8923 37.5715 33.4247 39.52 34.4201 41.2398L34.7901 41.9698C34.8758 42.1425 34.8935 42.3411 34.8398 42.5262C34.7861 42.7114 34.6649 42.8697 34.5001 42.9698C34.4178 43.0198 34.3262 43.0528 34.2309 43.0668C34.1356 43.0808 34.0384 43.0755 33.9451 43.0512C33.8519 43.027 33.7645 42.9843 33.688 42.9256C33.6116 42.867 33.5477 42.7936 33.5001 42.7098C33.5001 42.7098 33.5001 42.6298 33.5001 42.6198L33.1401 41.9198C32.0287 39.9466 31.452 37.7174 31.4671 35.4528C31.4822 33.1882 32.0886 30.9669 33.2263 29.0088C34.364 27.0506 35.9935 25.4237 37.9534 24.289C39.9132 23.1544 42.1355 22.5514 44.4001 22.5398H45.1501C47.3623 22.6691 49.5046 23.3617 51.3738 24.5519C53.243 25.742 54.7769 27.3902 55.8299 29.34C56.8829 31.2897 57.4201 33.4762 57.3903 35.6919C57.3606 37.9076 56.765 40.079 55.6601 41.9998L55.2501 42.7698C54.5282 43.9924 54.201 45.4079 54.3132 46.8233C54.4254 48.2387 54.9715 49.585 55.877 50.6787C56.7825 51.7723 58.0033 52.5599 59.373 52.9341C60.7426 53.3084 62.1943 53.251 63.5301 52.7698C63.6234 52.7369 63.7222 52.7228 63.8209 52.7282C63.9196 52.7335 64.0163 52.7582 64.1054 52.801C64.1945 52.8437 64.2744 52.9035 64.3404 52.9771C64.4064 53.0507 64.4573 53.1365 64.4901 53.2298C64.523 53.323 64.5371 53.4218 64.5317 53.5205C64.5264 53.6192 64.5017 53.7159 64.459 53.805C64.4162 53.8942 64.3564 53.974 64.2828 54.0401C64.2092 54.1061 64.1234 54.1569 64.0301 54.1898C63.1355 54.4957 62.1956 54.6479 61.2501 54.6398Z" fill="#BAD8DB"/>
<path d="M27.5399 54.64C26.5998 54.6425 25.6662 54.4835 24.7799 54.17C24.6805 54.1427 24.5878 54.0952 24.5076 54.0305C24.4273 53.9657 24.3613 53.8852 24.3136 53.7938C24.2659 53.7024 24.2376 53.6021 24.2304 53.4993C24.2231 53.3965 24.2372 53.2933 24.2716 53.1961C24.3061 53.0989 24.3602 53.0099 24.4306 52.9346C24.501 52.8593 24.5862 52.7993 24.6808 52.7584C24.7754 52.7175 24.8774 52.6965 24.9805 52.6968C25.0836 52.697 25.1855 52.7186 25.2799 52.76C26.614 53.2288 28.0597 53.2769 29.4221 52.8981C30.7844 52.5192 31.9977 51.7315 32.8982 50.6413C33.7987 49.5511 34.3431 48.2109 34.4578 46.8015C34.5726 45.3922 34.2522 43.9815 33.5399 42.76C33.4405 42.5876 33.4136 42.3828 33.4651 42.1905C33.5167 41.9983 33.6425 41.8345 33.8149 41.735C33.9873 41.6355 34.1922 41.6086 34.3844 41.6602C34.5766 41.7118 34.7405 41.8376 34.8399 42.01C35.5783 43.2888 35.9664 44.7397 35.9653 46.2164C35.9642 47.693 35.5739 49.1433 34.8336 50.421C34.0933 51.6987 33.0293 52.7587 31.7488 53.4942C30.4683 54.2296 29.0166 54.6145 27.5399 54.61V54.64Z" fill="#BAD8DB"/>
<path d="M61.18 60.6799C58.1017 60.666 55.0807 59.8464 52.4175 58.3025C49.7543 56.7586 47.5417 54.5443 46 51.8799C45.9052 51.711 45.8804 51.5117 45.9309 51.3248C45.9813 51.1378 46.1031 50.9781 46.27 50.8799C46.4394 50.7877 46.6379 50.7642 46.8241 50.8145C47.0103 50.8648 47.17 50.9849 47.27 51.1499C48.689 53.5855 50.7223 55.6061 53.1667 57.01C55.6112 58.4138 58.3811 59.1517 61.2 59.1499C61.3989 59.1499 61.5897 59.2289 61.7303 59.3696C61.871 59.5102 61.95 59.701 61.95 59.8999C61.95 60.0988 61.871 60.2896 61.7303 60.4302C61.5897 60.5709 61.3989 60.6499 61.2 60.6499L61.18 60.6799Z" fill="#BAD8DB"/>
<path d="M39.2998 63.5399C39.1341 63.5412 38.9727 63.4876 38.8407 63.3874C38.7087 63.2873 38.6135 63.1462 38.5701 62.9863C38.5267 62.8264 38.5375 62.6567 38.6008 62.5035C38.664 62.3504 38.7762 62.2225 38.9198 62.1399C41.2716 60.7353 43.3404 58.9039 45.0198 56.7399C45.1418 56.5821 45.3215 56.4792 45.5194 56.4539C45.7172 56.4285 45.917 56.4829 46.0748 56.6049C46.2326 56.7269 46.3355 56.9066 46.3608 57.1044C46.3861 57.3023 46.3318 57.5021 46.2098 57.6599C44.4121 59.97 42.2014 61.9264 39.6898 63.4299C39.5716 63.4998 39.4372 63.5377 39.2998 63.5399Z" fill="#BAD8DB"/>
<path d="M27.6396 60.6798C27.4407 60.6798 27.25 60.6009 27.1093 60.4601C26.9687 60.3195 26.8896 60.1287 26.8896 59.9298C26.8896 59.7309 26.9687 59.5401 27.1093 59.3995C27.25 59.2588 27.4407 59.1798 27.6396 59.1798C30.4585 59.1816 33.2285 58.4437 35.6729 57.0399C38.1173 55.6361 40.1506 53.6154 41.5696 51.1798C41.6696 51.0148 41.8293 50.8947 42.0156 50.8445C42.2018 50.7942 42.4002 50.8176 42.5696 50.9098C42.7365 51.008 42.8583 51.1677 42.9088 51.3547C42.9593 51.5417 42.9344 51.7409 42.8396 51.9098C41.2924 54.5716 39.0751 56.7817 36.4083 58.3204C33.7416 59.859 30.7184 60.6725 27.6396 60.6798Z" fill="#BAD8DB"/>
<path d="M49.2701 40.6398C50.0654 40.6398 50.7101 39.9951 50.7101 39.1999C50.7101 38.4046 50.0654 37.7598 49.2701 37.7598C48.4748 37.7598 47.8301 38.4046 47.8301 39.1999C47.8301 39.9951 48.4748 40.6398 49.2701 40.6398Z" fill="#BAD8DB"/>
<path d="M39.7701 40.6398C40.5654 40.6398 41.2101 39.9951 41.2101 39.1999C41.2101 38.4046 40.5654 37.7598 39.7701 37.7598C38.9748 37.7598 38.3301 38.4046 38.3301 39.1999C38.3301 39.9951 38.9748 40.6398 39.7701 40.6398Z" fill="#BAD8DB"/>
</svg>
